X:1
T:Ecossaise
T:Ecossaise
T:Op. 18, No. 2 (D.145)
T:Franz Schubert
T:Public Domain (PianoXML typeset)
C:Franz Schubert
Z:Public Domain (PianoXML typeset)
%%score { ( 1 2 ) | 3 }
L:1/8
Q:1/4=45
M:2/4
K:D
V:1 treble nm="Piano" snm="Pno."
V:2 treble 
V:3 bass 
V:1
!p! fd dd | c^A BB |!mf! f'd' d'd' | c'^a b z ::!p! f/e/d/c/ dd | [Ace][Ace] [Acea]2 | %6
!p! f/e/d/c/ dd | ee/f/ d z :| %8
V:2
 (d/c/)(B/^A/) BB | (^A/G/)(F/E/) DD | (d'/c'/)(b/^a/) bb | (^a/g/)(f/e/) d x :: FF AA | x4 | %6
 [FA][FA] AA | [Gc][Gc] F x :| %8
V:3
 B,,[F,B,D] B,,[F,B,D] | B,,[F,^A,C] B,,[F,B,] | B,,[F,B,D] B,,[F,B,D] | B,,[F,^A,C] B,,[F,B,D] :: %4
 [D,=A,D][D,A,D] [F,D][F,D] | [A,,A,][A,,A,] [A,,,A,,]2 | [D,A,D][D,A,D] [F,D][F,D] | %7
 [A,,A,][A,,,A,,] [D,,D,] z :| %8

